svgs/sharp-regular/police-box.svg

<svg xmlns="http://www.w3.org/2000/svg" viewBox="0 0 384 512"><!--! Font Awesome Pro 6.6.0 by @fontawesome - https://fontawesome.com License - https://fontawesome.com/license (Commercial License) Copyright 2024 Fonticons, Inc. --><path d="M208 0l0 16 0 16 112 0 0 32 32 0 0 48 0 352 32 0 0 48-32 0-48 0L80 512l-48 0L0 512l0-48 32 0 0-352 0-48 32 0 0-32 112 0 0-16 0-16 32 0zM80 464l224 0 0-352L80 112l0 352zm24-328l32 0 0 32-32 0 0-32zm0 48l32 0 0 32-32 0 0-32zm80-48l0 32-32 0 0-32 32 0zm-32 48l32 0 0 32-32 0 0-32zm80-48l0 32-32 0 0-32 32 0zm0 48l0 32-32 0 0-32 32 0zm16-48l32 0 0 32-32 0 0-32zm32 48l0 32-32 0 0-32 32 0zM104 232l80 0 0 80-80 0 0-80z"/></svg>

<svg xmlns="http://www.w3.org/2000/svg" viewBox="0 0 384 512"><!--! Font Awesome Pro 6.4.2 by @fontawesome - https://fontawesome.com License - https://fontawesome.com/license (Commercial License) Copyright 2023 Fonticons, Inc. --><path d="M208 0V16 32H320V64h32v48V464h32v48H352 304 80 32 0V464H32V112 64H64V32H176V16 0h32zM80 464H304V112H80V464zm24-328h32v32H104V136zm0 48h32v32H104V184zm80-48v32H152V136h32zm-32 48h32v32H152V184zm80-48v32H200V136h32zm0 48v32H200V184h32zm16-48h32v32H248V136zm32 48v32H248V184h32zM104 232h80v80H104V232z"/></svg>
